modules/feathericon/icons/home.svg

<svg width="14" height="14" viewBox="0 0 14 14" xmlns="http://www.w3.org/2000/svg"><path d="M7 0l7 7v1h-2v5s0 1-1 1H8v-4H6v4H3.004C2 14 2 13 2 13V8H0V7l7-7z" fill="#000" fill-rule="evenodd"/></svg>

<?xml version="1.0" encoding="UTF-8"?>
<svg width="14px" height="14px" viewBox="0 0 14 14" version="1.1" xmlns="http://www.w3.org/2000/svg" xmlns:xlink="http://www.w3.org/1999/xlink">
    <!-- Generator: sketchtool 48.1 (47250) - http://www.bohemiancoding.com/sketch -->
    <title>home</title>
    <desc>Created with sketchtool.</desc>
    <defs></defs>
    <g id="web-app" stroke="none" stroke-width="1" fill="none" fill-rule="evenodd">
        <g id="home" fill="#000000">
            <path d="M7,0 L14,7 L14,8 L12,8 L12,13 C12,13 12,14 11,14 L8,14 L8,10 L6,10 L6,14 L3.00430759,14 C2,14 2,13 2,13 L2,8 L0,8 L0,7 L7,0 Z" id="Shape"></path>
        </g>
    </g>
</svg>
